X:698
T:Jimmy Ward's jig
T:Clare jig
R:Jig
O:Ireland
B:Ceol Rince 3 n2
S:Mark Boronkay
Z:Transcription:Mark Boronkay?, slight rearrangement, chords:Mike Long
M:6/8
L:1/8
K:G
"G"G2G GAB|"C"AGE "G"GED|"G"~G3 AGE|"C"GED "D"DEF|\
"G"G2G GAB|"C"AGE "G"GAB|"C"cBA "G"BGE|[1 "D"~D3 DEF:|[2 "D"~D3 D2B|]
|:"C"c2A "G"BAG|"D"ABA AGE|"C"c2A "G"BGE|"D"~D3 D2B|\
"C"c2A "G"BAG|"D"ABA ABc|"D"dcA "C"GEA|[1 "D"~D3 D2B:|[2 "D"D2B cAF|]
